!!!!SEGMENT: pl-kk--kk-i-8--002_anonim--gratuletur-ecclesia-nova.krn
!!!cenid: 16xx:1142
!!!COM: Anonim
!!!COM-rismid: pe30004985
!!!CDT:
!!!CNT:
!!!OTL: Gratuletur Ecclesia nova
!!!PDT:
!!!AGN: Sacred
!!!SMS-siglum: PL-Kk
!!!SMS-shelfmark: Kk.I.8
!!!SMS-shelfwork: 002 W
!!!SMS-variant:
!!!SMS-altvar:
!!!NIFC-rismid: 1001148280
!!!URL-scan: http://repozytorium.nifc.pl/skany/pl-kk-nut--i-8
!!!ONB-nifc: UWAGA: A (skan 0002, s.1), T1 (0025, s.1), T2 (0049, s.1), B (0072, s.1). Następny utwór: Caeli iubar;
!!!key:
**kern	**text	**text	**text	**text	**kern	**text	**text	**text	**text	**kern	**text	**text	**text	**text	**kern	**text	**text	**text	**text
*part4	*part4	*part4	*part4	*part4	*part3	*part3	*part3	*part3	*part3	*part2	*part2	*part2	*part2	*part2	*part1	*part1	*part1	*part1	*part1
*staff4	*staff4	*staff4	*staff4	*staff4	*staff3	*staff3	*staff3	*staff3	*staff3	*staff2	*staff2	*staff2	*staff2	*staff2	*staff1	*staff1	*staff1	*staff1	*staff1
*Iempty	*	*	*	*	*Itenor	*	*	*	*	*Itenor	*	*	*	*	*Ialto	*	*	*	*
*I"Baſsus.	*	*	*	*	*I"Tenor 2dus	*	*	*	*	*I"Tenor. 1mus	*	*	*	*	*I"[alto.]	*	*	*	*
*I'B	*	*	*	*	*I'T 2	*	*	*	*	*I'T 1	*	*	*	*	*I'A	*	*	*	*
*clefF4	*	*	*	*	*clefC4	*	*	*	*	*clefC1	*	*	*	*	*clefC3	*	*	*	*
*k[]	*	*	*	*	*k[]	*	*	*	*	*k[]	*	*	*	*	*k[]	*	*	*	*
*C:	*	*	*	*	*C:	*	*	*	*	*C:	*	*	*	*	*C:	*	*	*	*
*M3/4	*	*	*	*	*M3/4	*	*	*	*	*M3/4	*	*	*	*	*M3/4	*	*	*	*
=1-	=1-	=1-	=1-	=1-	=1-	=1-	=1-	=1-	=1-	=1-	=1-	=1-	=1-	=1-	=1	=1	=1	=1	=1
!	!	!	!	!	!LO:TX:t=P:problem=brak kresek taktowych	!	!	!	!	!LO:TX:t=P:problem=brak kresek taktowych	!	!	!	!	!	!	!	!	!
!LO:TX:t=P:problem=brak kresek taktowych	!	!	!	!	!LO:TX:t=P:problem=zapis słabo czytelny, w miejscach spornych dostosowałem do A i B	!	!	!	!	!LO:TX:t=P:problem=zapis słabo czytelny, w miejscach spornych dostosowałem do A i B	!	!	!	!	!LO:TX:t=P:problem=normalne kreski taktowe	!	!	!	!
2C/	1.Gra-	3.Mox	5.In	7.De-	2c\	1.Gra-	3.Mox	5.In	7.De-	2ee\	1.Gra-	3.Mox	5.In	7.De-	2g\	1.Gra-	3.Mox	5.In	7.De-
4C/	-tu-	a	pet-	-o	4c\	-tu-	a	pet-	-o	4ee\	-tu-	à	pet-	-o	4e\	-tu-	a	Pet-	-o
=2-	=2-	=2-	=2-	=2-	=2-	=2-	=2-	=2-	=2-	=2-	=2-	=2-	=2-	=2-	=2	=2	=2	=2	=2
4F\	-le-	Com-	-ra	Pat-	4c\	-le-	Com-	-ra	Pat-	4cc\	-le-	Com-	-ra	Pat-	4a\	-le-	com-	-ra	Pat-
4E\	-t(ur)	-mi-	Cor-	-ri	4G/	-tur	-mi-	Cor-	-ri	4cc\	-tur	-mi-	Cor-	-ri	4e\	-t(ur)	-mi-	cor-	-ri
!	!	!	!	!	!	!	!	!	!	!LO:TX:t=P:problem=kreska pseudotaktowa	!	!	!	!	!	!	!	!	!
4D\	Ec-	-li-	-p(us)	Sit	4B\	Ec-	-li-	-p(us)	Sit	4dd\	Ec-	-li-	-puſ	Sit	4f\	Ec-	-li-	-p(us)	Sit
=3-	=3-	=3-	=3-	=3-	=3-	=3-	=3-	=3-	=3-	=3-	=3-	=3-	=3-	=3-	=3	=3	=3	=3	=3
4.C/	-cle-	-to-	no-	glo-	4.c\	-cle-	-to-	no-	glo-	4.ee\	-cle-	-to-	No-	glo-	4.c\	-cle-	-to-	no-	glo-
8C/	-ſi-	-ni-	-bi-	-ri-	8c\	-ſi-	-ni-	-bi-	-ri-	8ee\	-ſi-	-ni-	-bi-	-ri-	8d\	-ſi-	-ni-	-bi-	-ri-
4C/	-a	-b(us)	-le	-a	4c\	-a	-b(us)	-le	-a	4ee\	-a	-b(us)	-le	-a	4e\	-a	-b(us)	-le	-a
=4-	=4-	=4-	=4-	=4-	=4-	=4-	=4-	=4-	=4-	=4-	=4-	=4-	=4-	=4-	=4	=4	=4	=4	=4
4c\	no-	ten-	Cu-	et	4c\	no-	ten-	cu-	et	4ee\	No-	ten-	Cu-	et	4g\	no-	ten-	Cu-	et
4B\	-va	-t(us)	-râ	Fi-	4d\	-va	-t(us)	-ra	fi-	4dd\	-va	-t(us)	-rà	Fi-	4g\	-va	-t(us)	-ra	fi-
4c\	lau-	Ver-	Ser-	-li-	4c\	lau-	ver-	ſer-	-li-	4ee\	lau-	ver-	ſer-	-li-	4g\	lau-	ver-	ſer-	-li-
=5-	=5-	=5-	=5-	=5-	=5-	=5-	=5-	=5-	=5-	=5-	=5-	=5-	=5-	=5-	=5	=5	=5	=5	=5
!	!	!	!	!	!LO:SIC:v:l:s=dis:verse1	!	!	!	!	!LO:SIC:v:l:s=dis:verse1	!	!	!	!	!LO:SIC:v:l:s=dis:verse1	!	!	!	!
2G\	-dis	-bis	-va-	-o	2B\	-du(m)	-bis	-va-	-o	2dd\	-du(m)	-bis	-va-	-o	2g\	-du(m)	-bis	-va-	-o
4C/	prae-	Ver-	-t(ur)	qui	4c\	prae-	ver-	-t(ur)	qvi[[à]]	4ee\	prae-	ver-	-t(ur)	qui	8e\L	prae-	ver-	-t(ur)	qui
.	.	.	.	.	.	.	.	.	.	.	.	.	.	.	8f\J	.	.	.	.
=6-	=6-	=6-	=6-	=6-	=6-	=6-	=6-	=6-	=6-	=6-	=6-	=6-	=6-	=6-	=6	=6	=6	=6	=6
!LO:TX:t=P:problem=rozdzielacz słów?	!	!	!	!	!	!	!	!	!	!	!	!	!	!	!	!	!	!	!
2D,/	-co-	-be-	A-	à_Mor-	2A/	-co-	-be-	a-	à_Mor-	2dd\	-co-	-be-	A-	à_Mor-	4g\	.	.	.	a
.	.	.	.	.	.	.	.	.	.	.	.	.	.	.	4.d\	-co-	-be-	A-	Mor-
4D/	-ni-	-ri-	-qui-	-tu-	4A/	-ni-	-ri-	-qui-	-tu-	4dd\	-ni-	-ri-	-qui-	-tu-	.	.	.	.	.
.	.	.	.	.	.	.	.	.	.	.	.	.	.	.	8d\	-ni-	-ri-	-qui-	-tu-
=7-	=7-	=7-	=7-	=7-	=7-	=7-	=7-	=7-	=7-	=7-	=7-	=7-	=7-	=7-	=7	=7	=7	=7	=7
!LO:TX:t:a=De S: Floriano 1721	!	!	!	!	!	!	!	!	!	!	!	!	!	!	!	!	!	!	!
!LO:TX:t=P:problem=kreska pseudotaktowa	!	!	!	!	!	!	!	!	!	!LO:TX:a:t=de S. Floriano 1721	!	!	!	!	!LO:SIC:v:l:s=lae:verse1	!	!	!	!
2.GG/	-a	-b(us)	-lae	-is	2.G/	-a	-b(us)	-lae	-is	2.b\	-a	-b(us)	-lae	-is	2.d\	-a	-b(us)	-liae	-is
=8	=8-	=8-	=8-	=8-	=8-	=8-	=8-	=8-	=8-	=8-	=8-	=8-	=8-	=8-	=8	=8	=8	=8	=8
4E\	De-	jam	quod	Sur-	4G/	De-	ia(m)	quod	Sur-	4b\	De-	ia(m)	quod	Sur-	4e\	De-	Iam	q(uo)d	ſur-
!LO:SIC:v:l:s=o:verse1	!	!	!	!	!LO:SIC:v:l:s=o:verse1	!	!	!	!	!LO:SIC:v:l:s=o:verse1	!	!	!	!	!LO:SIC:v:l:s=o:verse1	!	!	!	!
4E\	-i	mul-	ut	-re-	4G/	-i	mul-	ut	-re-	4b\	-i	mul-	ut	-re-	4e\	-i	mul-	ut	-re-
4E\	Ca-	-ce-	man-	-xit	4G/	Ca-	-ce-	man-	-xit	4b\	Ca-	-ce-	man-	-xit	4e\	Ca-	-ce-	Man-	-xit
=9-	=9-	=9-	=9-	=9-	=9-	=9-	=9-	=9-	=9-	=9-	=9-	=9-	=9-	=9-	=9	=9	=9	=9	=9
2A\	-nens	-t(ur)	-det	ac	2A/	-nenſ	-t(ur)	-det	ac	2cc\	-nenſ	-t(ur)	-det	ac	2e\	-nens	-t(ur)	-det	ac
4D/	cu(m)	ja(m)	ter-	Pa-	4A/	Cu(m)	ia(m)	ter-	Pa-	4dd\	cu(m)	ia(m)	ter-	Pa-	4f\	cu(m)	ja(m)	ter-	Pa-
=10-	=10-	=10-	=10-	=10-	=10-	=10-	=10-	=10-	=10-	=10-	=10-	=10-	=10-	=10-	=10	=10	=10	=10	=10
!	!	!	!	!	!	!	!	!	!	!LO:SIC:v:l:s=fran:verse2	!	!	!	!	!	!	!	!	!
4.E\	gra-	fran-	-rae	-ra-	4.G#X/	gra-	fran-	-rae	-ra-	4.b\	gra-	flec-	-rae	-ra-	4.e\	gra-	fran-	-rae	-ra-
!	!	!	!	!	!	!	!	!	!	!LO:SIC:v:l:s=cli:verse4	!	!	!	!	!	!	!	!	!
!	!	!	!	!	!LO:SIC:v:l:s=cli:verse4	!	!	!	!	!LO:SIC:v:l:s=gi:verse2	!	!	!	!	!	!	!	!	!
8E\	-ti-	-gi-	pi-	-cli-	8G#/	-ti-	-gi-	[pi-	-cly-	8b\	-(ti)-	-ti-	pi-	-cly-	8e\	-(ti)-	-gi-	pi-	-cli-
4E\	-a	-t(ur)	-am	-to	4G#/	-a	-t(ur)	-am]	-to	4b\	-a	-t(ur)	-[am]	-to	4e\	-a	-t(ur)	-a(m)	-to
!LO:LB:g=original	!	!	!	!	!LO:LB:g=original	!	!	!	!	!LO:LB:g=original	!	!	!	!	!LO:LB:g=original	!	!	!	!
=11-	=11-	=11-	=11-	=11-	=11-	=11-	=11-	=11-	=11-	=11-	=11-	=11-	=11-	=11-	=11	=11	=11	=11	=11
4C/	pro	nec	Mar-	in	2.r	.	.	.	.	4cc\	pro	nec	Mar-	in	2.r	.	.	.	.
!	!	!	!	!	!	!	!	!	!	!LO:SIC:v:s=8g	!	!	!	!	!	!	!	!	!
(8E\L	Flo-	a	.	Sem-	.	.	.	.	.	8a\L	Flo-	a	.	Sem-	.	.	.	.	.
!	!	!	!	!	!	!	!	!	!	!LO:SIC:v:s=8f	!	!	!	!	!	!	!	!	!
8F\)	.	.	.	.	.	.	.	.	.	8g\J	.	.	.	.	.	.	.	.	.
(8E\	-ri-	.	.	-pi-	.	.	.	.	.	8g\L	-ri-	.	.	-pi-	.	.	.	.	.
8F\J)	.	.	.	.	.	.	.	.	.	8a\J	.	.	.	.	.	.	.	.	.
=12-	=12-	=12-	=12-	=12-	=12-	=12-	=12-	=12-	=12-	=12-	=12-	=12-	=12-	=12-	=12	=12	=12	=12	=12
2G\	-a-	fi-	.	-ter-	4G/	pro	nec	Mar-	In	4.b\	-a-	fi-	.	-ter-	4B/	pro	nec	Mar-	In
.	.	.	.	.	(8B\L	Flo-	a	-tyr	Sem-	.	.	.	.	.	(8d\L	Flo-	a	.	Sem-
.	.	.	.	.	8c\J)	.	.	.	.	8a\	.	.	.	.	8e\J)	.	.	.	.
4G\	-ni	-de	-tyr	-na	(8B\L	-ri-	.	.	-pi-	4g/	-ni	-de	-tyr	-na	(8d\L	-ri-	.	-tyr	-pi-
.	.	.	.	.	8c\J)	.	.	.	.	.	.	.	.	.	8e\J)	.	.	.	.
=13-	=13-	=13-	=13-	=13-	=13-	=13-	=13-	=13-	=13-	=13-	=13-	=13-	=13-	=13-	=13	=13	=13	=13	=13
4D/	/pro	/nec	Mar-	in	2d\	-a-	fi-	Mo-	-ter-	4dd\	/pro	nec	/Mar-	/in	2f\	-a-	fi-	mo-	-ter-
(8F\L	Flo-	a	.	Sem-	.	.	.	.	.	(8a\L	Flo-	à	.	Sem-	.	.	.	.	.
8G\J)	.	.	.	.	.	.	.	.	.	8g\J)	.	.	.	.	.	.	.	.	.
(8F\L	-ri-	fi-	.	-pi-	4d\	-ni	-de	-net	-na	(8a\L	-ri-	.	.	-pi-	4f\	-ni	-de	-net	-na
8G\J)	.	.	.	.	.	.	.	.	.	8b\J)	.	.	.	.	.	.	.	.	.
=14-	=14-	=14-	=14-	=14-	=14-	=14-	=14-	=14-	=14-	=14-	=14-	=14-	=14-	=14-	=14	=14	=14	=14	=14
2A\	-a-	-de/	.	-ter-	4A\	/pro	/nec	/Mar-	/In	4.cc\	-a-	fi-	.	-ter-	4c\	pro	/nec	/Mar-	In
.	.	.	.	.	(8c\L	Flo-	a	-tyr	Sem-	.	.	.	.	.	(8e\L	Flo-	a	.	Sem-
.	.	.	.	.	8d\J)	.	.	.	.	8b\	.	-de,	.	.	8f\J)	.	.	.	.
4A\	-ni/	a	-tyr	-na	(8c\L	-ri-	.	.	-pi-	4a\	-ni/	à	-tyr/	-na/	8e\L	-ri-	.	-tyr	-pi-
.	.	.	.	.	8d\J)	.	.	.	.	.	.	.	.	.	8f\J	.	.	.	.
=15-	=15-	=15-	=15-	=15-	=15-	=15-	=15-	=15-	=15-	=15-	=15-	=15-	=15-	=15-	=15	=15	=15	=15	=15
4E\	glo-	fi-	mo-	Sae-	4.e\	-a-	fi-	Mo-	-ter-	4.ee\	flo-	fi-	Mo-	Sem-	4.g\	-a-	fi-	mo-	-ter-
2A\	.	-de	-net	.	.	.	.	.	.	.	.	.	.	.	.	.	.	.	.
.	.	.	.	.	8d\	.	de/	net/	.	8ee\	-ri-	-de	-net	-pi-	8f\	.	.	.	-na
.	.	.	.	.	4c\	-ni/	re-	Va-	-na/	4ee\	-a-	re-	Va-	-ter-	4e\	-ni	-de/	-net/	.
=16-	=16-	=16-	=16-	=16-	=16-	=16-	=16-	=16-	=16-	=16-	=16-	=16-	=16-	=16-	=16	=16	=16	=16	=16
4D\	.	re-	Va-	.	2c\	glo-	-flec-	-le-	Sae-	4dd\	-ni	.	.	-na	4f\	glo-	re-	Va-	.
!	!	!	!	!	!	!	!	!	!	!	!	!	!	!	!LO:SIC:v:l:s=sae:verse4	!	!	!	!
4G\	.	-flec-	-le-	.	.	.	.	.	.	4.dd\	glo-	-flec-	-le-	Sae-	4.d\	.	-flec-	-le-	glo-
4GG/	-ri-	ti-	-ri-	-cu-	4B\	-ri-	-ti-	-ri-	-cu-	.	.	.	.	.	.	.	.	.	.
!	!	!	!	!	!	!	!	!	!	!	!	!	!	!	!LO:SIC:v:l:s=cu:verse4	!	!	!	!
.	.	.	.	.	.	.	.	.	.	8dd\	-ri-	-ti-	-ri-	-cu-	8d\	-ri-	-ti-	-ri-	-ri-
=17-	=17-	=17-	=17-	=17-	=17-	=17-	=17-	=17-	=17-	=17-	=17-	=17-	=17-	=17-	=17	=17	=17	=17	=17
!	!	!	!	!	!	!	!	!	!	!	!	!	!	!	!LO:SIC:v:l:s=la:verse4	!	!	!	!
!	!	!	!	!	!	!	!	!	!	!	!	!	!	!	!LO:TX:t=P:problem=kreska z obustronną repetycją	!	!	!	!
2.C/	-a.	-t(ur)	-am	-la	2.c;\	-a	-tur	-am	-la	2.cc\	-a.	-tur	-am	-la	2.e\	-a	-t(ur)	-am	-a
!LO:LB:g=original	!	!	!	!	!LO:LB:g=original	!	!	!	!	!LO:LB:g=original	!	!	!	!	!LO:LB:g=original	!	!	!	!
=18--	=18-	=18-	=18-	=18-	=18||-	=18||-	=18||-	=18||-	=18||-	=18||-	=18||-	=18||-	=18||-	=18||-	=18||	=18||	=18||	=18||	=18||
*M3/4	*	*	*	*	*M3/4	*	*	*	*	*M3/4	*	*	*	*	*M3/4	*	*	*	*
4A\	2.Hic	4.Hinc	6.Cum	.	4c\	2.Hic	4.Hinc	6.Cu(m)	.	4a\	2.Hic	4.Hinc	6.Cu(m)	.	4e\	2.Hic	4.Hinc	6.Cu(m)	.
!LO:SIC:v:l:s=un:verse2	!	!	!	!	!LO:SIC:v:l:s=un:verse2	!	!	!	!	!LO:SIC:v:l:s=un:verse2	!	!	!	!	!LO:SIC:v:l:s=un:verse2	!	!	!	!
4A\	a-	Vn-	ad	.	4c\	a-	Vn-	ad	.	4a\	a-	Vn-	ad	.	4e\	a-	Vn-	ad	.
4A\	-pud	-cis	hu-	.	4c\	-pud	-ciſ	hu-	.	4a\	-pud	-cis	hu-	.	4e\	-pud	-cis	hu-	.
=19-	=19-	=19-	=19-	=19-	=19-	=19-	=19-	=19-	=19-	=19-	=19-	=19-	=19-	=19-	=19	=19	=19	=19	=19
!LO:SIC:v:l:s=Ur:verse1	!	!	!	!	!LO:SIC:v:l:s=Ur:verse1	!	!	!	!	!LO:SIC:v:l:s=Ur:verse1	!	!	!	!	!LO:SIC:v:l:s=Ur:verse1	!	!	!	!
2F\	Vr-	frac-	-man-	.	2d\	Vr-	frac-	-man-	.	2a\	Vr-	frac-	-man-	.	2f\	Vr-	frac-	-man-	.
4D/	-bem	-tis	-du(m)	.	4d\	-bem	-tis	-dum	.	4a\	-bem	-tis	-d(um)	.	4f\	-bem	-tis	-du(m)	.
=20-	=20-	=20-	=20-	=20-	=20-	=20-	=20-	=20-	=20-	=20-	=20-	=20-	=20-	=20-	=20	=20	=20	=20	=20
!	!	!	!	!	!	!	!	!	!	!	!	!	!	!	!LO:SIC:v:l:s=The:verse1	!	!	!	!
4.A\	The-	Sca-	du-	.	4.c\	The-	Sca-	du-	.	4.a\	The-	Sca-	du-	.	4.e\	Te-	Sca-	du-	.
!LO:SIC:v:l:s=ti:verse1	!	!	!	!	!LO:SIC:v:l:s=ti:verse1	!	!	!	!	!LO:SIC:v:l:s=ti:verse1	!	!	!	!	!LO:SIC:v:l:s=ti:verse1	!	!	!	!
8A\	-ci-	-pu-	-ci-	.	8c\	-ci-	-pu-	-ci-	.	8a\	-ci-	-pu-	-ci-	.	8e\	-ci-	-pu-	-ci-	.
4A\	-a(m)	-lis	-t(ur)	.	4c\	-a(m)	-lis	-t(ur)	.	4a\	-a(m)	-lis	-t(ur)	.	4e\	-am	-lis	-t(ur)	.
=21-	=21-	=21-	=21-	=21-	=21-	=21-	=21-	=21-	=21-	=21-	=21-	=21-	=21-	=21-	=21	=21	=21	=21	=21
4E\	lin-	Vir	ju-	.	4G#X/	lin-	Vir	ju-	.	4b\	lin-	Vir	ju-	.	4e\	lin-	Vir	Iu-	.
!LO:SIC:v:l:s=quens:verse1	!	!	!	!	!LO:SIC:v:l:s=quens:verse1	!	!	!	!	!LO:SIC:v:l:s=quens:verse1	!	!	!	!	!LO:SIC:v:l:s=quens:verse1	!	!	!	!
4A\	-qvens	in-	-men-	.	4A/	-qvens	In-	-men-	.	(4cc\	-qvens	In-	-men-	.	4e\	-qvens	in-	-men-	.
4G\	Do-	-ſons	-tu(m)	.	4B\	Do-	-ſonſ	-tu(m)	.	4dd\	.	.	.	.	4g\	Do-	-ſons	-tu(m)	.
=22-	=22-	=22-	=22-	=22-	=22-	=22-	=22-	=22-	=22-	=22-	=22-	=22-	=22-	=22-	=22	=22	=22	=22	=22
2c\	-mu(m)	Si-	ſi-	.	2c\	-mu(m)	Si-	Si-	.	2ee\)	do-	-ſonſ	-tu(m)	.	2g\	-mu(m)	Si-	Si-	.
4A\	fa-	-ne	-ti	.	4c\	ſa-	-ne	-ti	.	2ee\	-m(um)	Si-	ſi-	.	4a\	Fa-	-ne	-ti	.
=23-	=23-	=23-	=23-	=23-	=23-	=23-	=23-	=23-	=23-	=23-	=23-	=23-	=23-	=23-	=23	=23	=23	=23	=23
2B\	-mi-	Ma-	pre-	.	2B\	-mi-	ma-	pre-	.	.	.	.	.	.	2f#X\	-mi-	Ma-	p[re]-	.
.	.	.	.	.	.	.	.	.	.	4ee\	fa-	-ne	-ti	.	.	.	.	.	.
4BB/	-li-	-cu-	-mi-	.	4B\	-li-	-cu-	-mi-	.	8dd\	-mi-	ma-	pre-	.	4f#\	-li-	-Cu-	-mi-	.
.	.	.	.	.	.	.	.	.	.	8dd\	-li-	-cu-	-mi-	.	.	.	.	.	.
=24-	=24-	=24-	=24-	=24-	=24-	=24-	=24-	=24-	=24-	=24-	=24-	=24-	=24-	=24-	=24	=24	=24	=24	=24
2.E\	-a(m)	-lis	-t(ur)	.	2.B\	-a(m)	-lis	-t(ur)	.	2.ee\	-a(m)	-lis	-t(ur)	.	2.g#X\	-a(m)	-lis	-t(ur)	.
=25-	=25-	=25-	=25-	=25-	=25-	=25-	=25-	=25-	=25-	=25-	=25-	=25-	=25-	=25-	=25	=25	=25	=25	=25
4C/	Lau-	d(um)	mi-	.	4c\	Lau-	du(m)	mi-	.	4ee\	Lau-	dum	mi-	.	4gn\	Lau-	d(um)	Mi-	.
4E\	-re-	jac-	-rè	.	4c\	-re-	jac-	-re	.	4ee\	-re-	jac-	-re	.	4g\	-re-	iac-	-re	.
4C/	-a-	-ta-	ta-	.	4c\	-a-	-ta-	ta-	.	4ee\	-a-	-ta-	ta-	.	4e\	-a-	-ta-	ta-	.
=26-	=26-	=26-	=26-	=26-	=26-	=26-	=26-	=26-	=26-	=26-	=26-	=26-	=26-	=26-	=26	=26	=26	=26	=26
!	!	!	!	!	!	!	!	!	!	!	!	!	!	!	!LO:SIC:v:s=4g	!	!	!	!
2G\	-cu(m)	-t(ur)	-men	.	2B\	-cu(m)	-tur	-men	.	2dd\	-cu(m)	-t(ur)	-men	.	4a\	-cu(m)	-t(ur)	-men	.
.	.	.	.	.	.	.	.	.	.	.	.	.	.	.	(4d\	ac-	in	re-	.
4A\	ac-	in	re-	.	4A\	ac-	in	re-	.	4cc\	ac-	in	re-	.	4a\)	.	.	.	.
!	!	!	!	!	!LO:LB:g=original	!	!	!	!	!	!	!	!	!	!	!	!	!	!
=27-	=27-	=27-	=27-	=27-	=27-	=27-	=27-	=27-	=27-	=27-	=27-	=27-	=27-	=27-	=27	=27	=27	=27	=27
4.G\	-ce-	flu-	-fi-	.	4.B\	-ce-	flu-	-fi-	.	4.dd\	-ce-	flu-	-fi-	.	4.d\	-ce-	flu-	-fi-	.
8G\	-le-	-mi-	-ci-	.	8B\	-le-	-mi-	-ci-	.	8dd\	-le-	-mi-	-ci-	.	8d\	-le-	-mi-	-ci-	.
4G\	-rat	-ne	-tur	.	4B\	-rat	-ne	-tur	.	4dd\	-rat	-ne	-t(ur)	.	4d\	-[rat]	-ne	-t(ur)	.
!LO:LB:g=original	!	!	!	!	!	!	!	!	!	!LO:LB:g=original	!	!	!	!	!LO:LB:g=original	!	!	!	!
=28-	=28-	=28-	=28-	=28-	=28-	=28-	=28-	=28-	=28-	=28-	=28-	=28-	=28-	=28-	=28	=28	=28	=28	=28
4E\	quo	tor-	fons	.	4G/	quo	tor-	fons	.	4ee\	quo	tor-	fonſ	.	4g\	quo	tor-	fons	.
4F\	San-	-tor	no-	.	4A/	San-	-tor	no-	.	4dd\	S[an]-	-tor	no-	.	4e\	S[an]-	-tor	no-	.
4G\	-ctos	pri-	-v(us)	.	4B\	-ctos	pri-	-vus	.	4gg\	-ctos	pri-	-v(us)	.	4e\	-ctos	pri-	-v(us)	.
=29-	=29-	=29-	=29-	=29-	=29-	=29-	=29-	=29-	=29-	=29-	=29-	=29-	=29-	=29-	=29	=29	=29	=29	=29
!	!	!	!	!	!LO:SIC:v:l:s=qui:verse3	!	!	!	!	!LO:SIC:v:l:s=qui:verse3	!	!	!	!	!	!	!	!	!
2A\	pa-	-va-	qui-	.	2c\	pa-	-va-	qvi-	.	8cc\L	pa-	-va-	qvi-	.	2a\	pa-	-va-	qui-	.
.	.	.	.	.	.	.	.	.	.	8dd\J	.	.	.	.	.	.	.	.	.
.	.	.	.	.	.	.	.	.	.	8ee\L	.	.	.	.	.	.	.	.	.
.	.	.	.	.	.	.	.	.	.	8cc\J	.	.	.	.	.	.	.	.	.
4F\	-ti	-t(ur)	-a	.	2c\	-ti	-tur	-a	.	4ff\	.	.	.	.	4a\	-ti	-t(ur)	-a	.
=30-	=30-	=30-	=30-	=30-	=30-	=30-	=30-	=30-	=30-	=30-	=30-	=30-	=30-	=30-	=30	=30	=30	=30	=30
2G\	no-	lu-	fun-	.	.	.	.	.	.	4ee\	-ti	-t(ur)	-a	.	4g\	no-	lu-	fun-	.
.	.	.	.	.	4c\	no-	lu-	fun-	.	4.dd\	no-	lu-	fun-	.	(4.d\	-ve-	-mi-	-di-	.
4GG/	-ve-	-mi-	-di-	.	4B\	-ve-	-mi-	-di-	.	.	.	.	.	.	.	.	.	.	.
.	.	.	.	.	.	.	.	.	.	8dd\	-ve-	-mi-	-di-	.	8g\)	.	.	.	.
=31-	=31-	=31-	=31-	=31-	=31-	=31-	=31-	=31-	=31-	=31-	=31-	=31-	=31-	=31-	=31	=31	=31	=31	=31
!	!	!	!	!	!	!	!	!	!	!	!	!	!	!	!LO:TX:t=P:problem=kreska z obustronną repetycją	!	!	!	!
2.C;/	-rat	-ne	-tur.	.	2.c;\	-rat	-ne	-t(ur)	.	2.cc\	-rat	-ne	-tur	.	2.e\	-rat	-ne	-t(ur)	.
==	==	==	==	==	==	==	==	==	==	==	==	==	==	==	==	==	==	==	==
*-	*-	*-	*-	*-	*-	*-	*-	*-	*-	*-	*-	*-	*-	*-	*-	*-	*-	*-	*-
!!!system-decoration: [(s1,s2,s3,s4)]
!!!EED: Leszek Kubiak
!!!EST: 2021-04-01
!!!AIN: 1 alto 1 empty 2 tenor
!!!ENC: Kamil Watkowski
!!!END: 2021-03-23
